img/quality-features-6.svg

<svg width="33" height="30" viewBox="0 0 33 30" fill="none" xmlns="http://www.w3.org/2000/svg">
<path d="M15.511 29.038V11.821L11.097 16.1508C10.9093 16.3324 10.6582 16.434 10.397 16.434C10.1358 16.434 9.88481 16.3324 9.69702 16.1508C9.6058 16.063 9.53321 15.9578 9.48364 15.8413C9.43408 15.7248 9.40857 15.5995 9.40857 15.4728C9.40857 15.3462 9.43408 15.2209 9.48364 15.1044C9.53321 14.9879 9.6058 14.8827 9.69702 14.7949L15.797 8.80903C15.9849 8.62768 16.2358 8.52632 16.4969 8.52632C16.7581 8.52632 17.0091 8.62768 17.197 8.80903L23.297 14.7949C23.3882 14.8827 23.4608 14.9879 23.5104 15.1044C23.5599 15.2209 23.5854 15.3462 23.5854 15.4728C23.5854 15.5995 23.5599 15.7248 23.5104 15.8413C23.4608 15.9578 23.3882 16.063 23.297 16.1508C23.1096 16.3309 22.8598 16.4316 22.6 16.4316C22.3401 16.4316 22.0903 16.3309 21.903 16.1508L17.489 11.821V29.038C17.4776 29.2926 17.3683 29.5328 17.1841 29.7089C16.9999 29.8851 16.7549 29.9833 16.5 29.9833C16.2451 29.9833 16.0001 29.8851 15.8159 29.7089C15.6317 29.5328 15.5224 29.2926 15.511 29.038ZM21.5341 20.778C21.2789 20.778 21.0342 20.6767 20.8538 20.4963C20.6733 20.3159 20.572 20.071 20.572 19.8159C20.572 19.5607 20.6733 19.3161 20.8538 19.1357C21.0342 18.9553 21.2789 18.854 21.5341 18.854H25.071C26.6412 18.8602 28.1516 18.2517 29.2791 17.1589C29.8299 16.6288 30.268 15.9931 30.5673 15.2897C30.8666 14.5864 31.0209 13.8298 31.0209 13.0654C31.0209 12.301 30.8666 11.5444 30.5673 10.841C30.268 10.1376 29.8299 9.50191 29.2791 8.97187C28.1512 7.87976 26.641 7.27198 25.071 7.27802C24.846 7.27802 24.6411 7.28688 24.4611 7.30488C24.2597 7.32376 24.0593 7.35327 23.861 7.39301C23.6354 7.43953 23.4006 7.40594 23.197 7.29829C22.9934 7.19064 22.8336 7.01554 22.745 6.80293C22.1575 5.3525 21.1443 4.11411 19.839 3.25093C18.3134 2.24577 16.4916 1.78877 14.6722 1.95503C12.8529 2.12128 11.1441 2.90096 9.82605 4.16596C9.09702 4.86826 8.5169 5.71017 8.12036 6.64155C7.72383 7.57293 7.51889 8.57458 7.51794 9.58686C7.51794 9.61186 7.51794 9.63901 7.51794 9.66401V9.70405C7.51729 9.83165 7.4916 9.95777 7.44214 10.0754C7.39267 10.193 7.32047 10.2996 7.22974 10.3894C7.139 10.4791 7.0315 10.5502 6.91333 10.5983C6.79516 10.6465 6.66861 10.6707 6.54102 10.6699H6.48596L6.31799 10.663H6.18994C5.07896 10.6588 4.01052 11.0895 3.21301 11.863C2.82295 12.2377 2.51265 12.6874 2.30066 13.185C2.08867 13.6827 1.97937 14.2181 1.97937 14.759C1.97937 15.2999 2.08867 15.8353 2.30066 16.333C2.51265 16.8306 2.82295 17.2802 3.21301 17.655C4.01064 18.4283 5.079 18.8589 6.18994 18.8549H10.942C11.1972 18.8549 11.4418 18.9563 11.6222 19.1367C11.8026 19.3171 11.9041 19.5617 11.9041 19.8168C11.9041 20.072 11.8026 20.3169 11.6222 20.4973C11.4418 20.6777 11.1972 20.779 10.942 20.779H6.18994C4.55689 20.7845 2.98634 20.1519 1.81299 19.0161C1.2401 18.465 0.784335 17.8039 0.473022 17.0725C0.16171 16.3411 0.0012207 15.5544 0.0012207 14.7595C0.0012207 13.9646 0.16171 13.1779 0.473022 12.4465C0.784335 11.7151 1.2401 11.0539 1.81299 10.5029C2.83415 9.51335 4.16227 8.9018 5.578 8.76899C5.781 6.50399 6.79358 4.38808 8.43005 2.80903C10.0779 1.22507 12.2158 0.249138 14.4921 0.0419407C16.7683 -0.165256 19.0472 0.408488 20.954 1.66889C22.3644 2.60243 23.5064 3.8882 24.267 5.39887C24.551 5.37087 24.82 5.35688 25.067 5.35688C27.1591 5.35005 29.171 6.16068 30.674 7.61592C31.4079 8.32126 31.9918 9.16769 32.3906 10.1042C32.7895 11.0407 32.9951 12.048 32.9951 13.0659C32.9951 14.0838 32.7895 15.0913 32.3906 16.0278C31.9918 16.9643 31.4079 17.8107 30.674 18.5161C29.171 19.9713 27.1591 20.7817 25.067 20.7749L21.5341 20.778Z" fill="#D6AB00"/>
</svg>

<svg width="33" height="30" fill="none" xmlns="http://www.w3.org/2000/svg"><path d="M15.511 29.038V11.821l-4.414 4.33a1.007 1.007 0 0 1-1.4 0 .94.94 0 0 1 0-1.356l6.1-5.986a1.008 1.008 0 0 1 1.4 0l6.1 5.986a.942.942 0 0 1 0 1.356 1.006 1.006 0 0 1-1.394 0l-4.414-4.33v17.217a.99.99 0 0 1-1.978 0Zm6.023-8.26a.962.962 0 1 1 0-1.924h3.537a6.013 6.013 0 0 0 4.208-1.695 5.682 5.682 0 0 0 0-8.187 6.016 6.016 0 0 0-4.208-1.694 6.209 6.209 0 0 0-1.21.115.992.992 0 0 1-1.116-.59 7.744 7.744 0 0 0-2.906-3.552 8.058 8.058 0 0 0-10.013.915 7.537 7.537 0 0 0-2.308 5.42v.118a.97.97 0 0 1-.977.966h-.055l-.168-.007H6.19a4.253 4.253 0 0 0-2.977 1.2 4.015 4.015 0 0 0 0 5.792 4.255 4.255 0 0 0 2.977 1.2h4.752a.962.962 0 0 1 0 1.924H6.19a6.263 6.263 0 0 1-4.377-1.763 5.907 5.907 0 0 1 0-8.513 6.249 6.249 0 0 1 3.765-1.734 9.455 9.455 0 0 1 2.852-5.96 10.064 10.064 0 0 1 12.524-1.14 9.709 9.709 0 0 1 3.313 3.73 8.023 8.023 0 0 1 6.407 2.217 7.559 7.559 0 0 1 0 10.9 8.023 8.023 0 0 1-5.607 2.259l-3.533.003Z" fill="#D6AB00"/></svg>
